Origami/64x64/apps/kalarm.svg

<svg xmlns="http://www.w3.org/2000/svg" width="64" height="64" version="1">
 <path style="opacity:0.2" d="m 25.718,47.738 c -0.238,1.152 -0.854,2.34 -1.854,3.34 l -5.9422,5.938 c -2.1936,2.194 -5.2804,2.634 -6.9258,0.988 -0.4408,-0.44 -0.7194,-0.986 -0.867,-1.59 -0.2856,1.372 -0.0276,2.696 0.867,3.59 1.6454,1.646 4.7322,1.206 6.9258,-0.988 l 5.9422,-5.942 c 1.606,-1.606 2.258,-3.688 1.854,-5.336 z m 12.41,0 c -0.402,1.648 0.25,3.73 1.856,5.336 l 5.938,5.942 c 2.194,2.194 5.284,2.634 6.93,0.988 0.894,-0.894 1.152,-2.218 0.866,-3.59 -0.146,0.604 -0.426,1.15 -0.866,1.59 -1.646,1.646 -4.736,1.206 -6.93,-0.988 l -5.938,-5.938 c -1,-1 -1.616,-2.188 -1.856,-3.34 z"/>
 <path style="fill:#4f4f4f" d="m 22.514,44.158 c -1.49994,-0.07952 -3.22,0.6086 -4.591,1.97968 l -5.939,5.939 c -2.1938,2.1938 -2.6352,5.2836 -0.98984,6.929 1.6453,1.6453 4.7352,1.20388 6.929,-0.98984 l 5.939,-5.939 c 2.1938,-2.1938 2.6352,-5.2836 0.98984,-6.929 -0.61698,-0.61698 -1.43792,-0.94212 -2.3378,-0.98984 z m 18.8152,0 c -0.89996,0.04772 -1.71816,0.37286 -2.3352,0.98984 -1.6453,1.6453 -1.20388,4.7352 0.98984,6.929 l 5.939,5.939 c 2.1938,2.1938 5.2836,2.6352 6.929,0.98984 1.6453,-1.6453 1.20388,-4.7352 -0.98984,-6.929 l -5.939,-5.939 C 44.55192,44.7666 42.8292,44.07848 41.3292,44.158 Z"/>
 <path style="fill:#e74c3c" d="M 10,4 A 10,10 0 0 0 0,14 10,10 0 0 0 10,24 10,10 0 0 0 20,14 10,10 0 0 0 10,4 Z M 54,4 A 10,10 0 0 0 44,14 10,10 0 0 0 54,24 10,10 0 0 0 64,14 10,10 0 0 0 54,4 Z"/>
 <path style="opacity:0.2;fill:#ffffff" d="M 10 4 A 10 10 0 0 0 0 14 A 10 10 0 0 0 0.021484375 14.414062 A 10 10 0 0 1 10 5 A 10 10 0 0 1 19.972656 14.474609 A 10 10 0 0 0 20 14 A 10 10 0 0 0 10 4 z M 54 4 A 10 10 0 0 0 44 14 A 10 10 0 0 0 44.021484 14.414062 A 10 10 0 0 1 54 5 A 10 10 0 0 1 63.972656 14.474609 A 10 10 0 0 0 64 14 A 10 10 0 0 0 54 4 z"/>
 <path style="opacity:0.2" d="M 4.0508,32 C 4.039,32.334 4,32.662 4,33 4,48.512 16.488,61 32,61 47.512,61 60,48.512 60,33 60,32.662 59.96,32.334 59.95,32 59.422,47.042 47.174,59 32,59 16.8256,59 4.578,47.042 4.05,32 Z"/>
 <rect style="fill:#e74c3c" width="56" height="56" x="-60" y="-60" rx="28" ry="28" transform="matrix(0,-1,-1,0,0,0)"/>
 <path style="opacity:0.2;fill:#ffffff" d="M 32 4 C 16.488 4 4 16.488 4 32 C 4 32.113556 4.0112845 32.224032 4.0175781 32.335938 C 4.3691213 17.134181 16.710728 5 32 5 C 47.287972 5 59.630821 17.13209 59.984375 32.332031 C 59.990631 32.221433 60 32.112217 60 32 C 60 16.488 47.512 4 32 4 z"/>
 <rect style="opacity:0.7;fill:#ffffff" width="46" height="46" x="-55" y="-55" rx="23" ry="23" transform="matrix(0,-1,-1,0,0,0)"/>
 <path style="opacity:0.7" d="M 32 11 A 3 3 0 0 0 29 14 A 3 3 0 0 0 32 17 A 3 3 0 0 0 35 14 A 3 3 0 0 0 32 11 z M 43.658203 22.003906 C 43.381408 21.984873 43.09537 22.045617 42.835938 22.193359 L 30.853516 29.017578 C 29.218776 29.820538 28.599119 31.921119 29.261719 33.136719 L 33.619141 40.578125 C 34.417241 41.941645 36.173041 42.405128 37.556641 41.617188 C 38.940261 40.829228 39.411381 39.097975 38.613281 37.734375 L 34.287109 30.34375 L 44.277344 24.654297 C 44.969144 24.260317 45.205901 23.395011 44.806641 22.712891 C 44.557103 22.286566 44.119528 22.035629 43.658203 22.003906 z M 14 29 A 3 3 0 0 0 11 32 A 3 3 0 0 0 14 35 A 3 3 0 0 0 17 32 A 3 3 0 0 0 14 29 z M 50 29 A 3 3 0 0 0 47 32 A 3 3 0 0 0 50 35 A 3 3 0 0 0 53 32 A 3 3 0 0 0 50 29 z M 32 47 A 3 3 0 0 0 29 50 A 3 3 0 0 0 32 53 A 3 3 0 0 0 35 50 A 3 3 0 0 0 32 47 z"/>
</svg>

<svg width="64" height="64" version="1" xmlns="http://www.w3.org/2000/svg">
 <path d="m25.718 47.738c-0.238 1.152-0.854 2.34-1.854 3.34l-5.9422 5.938c-2.1936 2.194-5.2804 2.634-6.9258 0.988-0.4408-0.44-0.7194-0.986-0.867-1.59-0.2856 1.372-0.0276 2.696 0.867 3.59 1.6454 1.646 4.7322 1.206 6.9258-0.988l5.9422-5.942c1.606-1.606 2.258-3.688 1.854-5.336zm12.41 0c-0.402 1.648 0.25 3.73 1.856 5.336l5.938 5.942c2.194 2.194 5.284 2.634 6.93 0.988 0.894-0.894 1.152-2.218 0.866-3.59-0.146 0.604-0.426 1.15-0.866 1.59-1.646 1.646-4.736 1.206-6.93-0.988l-5.938-5.938c-1-1-1.616-2.188-1.856-3.34z" style="opacity:.2"/>
 <path d="m22.514 44.158c-1.49994-0.07952-3.22 0.6086-4.591 1.97968l-5.939 5.939c-2.1938 2.1938-2.6352 5.2836-0.98984 6.929 1.6453 1.6453 4.7352 1.20388 6.929-0.98984l5.939-5.939c2.1938-2.1938 2.6352-5.2836 0.98984-6.929-0.61698-0.61698-1.43792-0.94212-2.3378-0.98984zm18.8152 0c-0.89996 0.04772-1.71816 0.37286-2.3352 0.98984-1.6453 1.6453-1.20388 4.7352 0.98984 6.929l5.939 5.939c2.1938 2.1938 5.2836 2.6352 6.929 0.98984 1.6453-1.6453 1.20388-4.7352-0.98984-6.929l-5.939-5.939c-1.37108-1.37108-3.0938-2.0592-4.5938-1.97968z" style="fill:#4f4f4f"/>
 <path d="M 10,4 A 10,10 0 0 0 0,14 10,10 0 0 0 10,24 10,10 0 0 0 20,14 10,10 0 0 0 10,4 Z M 54,4 A 10,10 0 0 0 44,14 10,10 0 0 0 54,24 10,10 0 0 0 64,14 10,10 0 0 0 54,4 Z" style="fill:#e74c3c"/>
 <path d="M 10 4 A 10 10 0 0 0 0 14 A 10 10 0 0 0 0.021484375 14.414062 A 10 10 0 0 1 10 5 A 10 10 0 0 1 19.972656 14.474609 A 10 10 0 0 0 20 14 A 10 10 0 0 0 10 4 z M 54 4 A 10 10 0 0 0 44 14 A 10 10 0 0 0 44.021484 14.414062 A 10 10 0 0 1 54 5 A 10 10 0 0 1 63.972656 14.474609 A 10 10 0 0 0 64 14 A 10 10 0 0 0 54 4 z" style="fill:#ffffff;opacity:.2"/>
 <path d="m4.0508 32c-0.0118 0.334-0.0508 0.662-0.0508 1 0 15.512 12.488 28 28 28s28-12.488 28-28c0-0.338-0.04-0.666-0.05-1-0.528 15.042-12.776 27-27.95 27-15.1744 0-27.422-11.958-27.95-27z" style="opacity:.2"/>
 <rect transform="matrix(0,-1,-1,0,0,0)" x="-60" y="-60" width="56" height="56" rx="28" ry="28" style="fill:#e74c3c"/>
 <path d="M 32 4 C 16.488 4 4 16.488 4 32 C 4 32.113556 4.0112845 32.224032 4.0175781 32.335938 C 4.3691213 17.134181 16.710728 5 32 5 C 47.287972 5 59.630821 17.13209 59.984375 32.332031 C 59.990631 32.221433 60 32.112217 60 32 C 60 16.488 47.512 4 32 4 z" style="fill:#ffffff;opacity:.2"/>
 <rect transform="matrix(0,-1,-1,0,0,0)" x="-55" y="-55" width="46" height="46" rx="23" ry="23" style="fill:#ffffff;opacity:.7"/>
 <path d="m32 11a3 3 0 0 0 -3 3 3 3 0 0 0 3 3 3 3 0 0 0 3 -3 3 3 0 0 0 -3 -3zm11.658203 11.003906c-0.276795-0.019033-0.562833 0.041711-0.822265 0.189453l-11.982422 6.824219c-1.63474 0.80296-2.254397 2.903541-1.591797 4.119141l4.357422 7.441406c0.7981 1.36352 2.5539 1.827003 3.9375 1.039063 1.38362-0.78796 1.85474-2.519213 1.05664-3.882813l-4.326172-7.390625 9.990235-5.689453c0.6918-0.39398 0.928557-1.259286 0.529297-1.941406-0.249538-0.426325-0.687113-0.677262-1.148438-0.708985zm-29.658203 6.996094a3 3 0 0 0 -3 3 3 3 0 0 0 3 3 3 3 0 0 0 3 -3 3 3 0 0 0 -3 -3zm36 0a3 3 0 0 0 -3 3 3 3 0 0 0 3 3 3 3 0 0 0 3 -3 3 3 0 0 0 -3 -3zm-18 18a3 3 0 0 0 -3 3 3 3 0 0 0 3 3 3 3 0 0 0 3 -3 3 3 0 0 0 -3 -3z" style="opacity:.7"/>
</svg>
